packages/components/icon/src/assets/icons/status-change.svg

<svg width="24" height="24" viewBox="0 0 24 24" fill="none" xmlns="http://www.w3.org/2000/svg">
<path fill-rule="evenodd" clip-rule="evenodd" d="M13.8217 1.9224L16.2514 5.11145C16.2804 5.14038 16.2948 5.18376 16.2948 5.24162C16.2948 5.29947 16.2804 5.34286 16.2514 5.37178L13.8217 8.58253C13.7349 8.6693 13.6481 8.71269 13.5614 8.71269H13.3227C13.2793 8.71269 13.2396 8.69823 13.2034 8.6693C13.1672 8.64038 13.1492 8.59699 13.1492 8.53914V6.45649H11.8692C11.175 6.48542 10.5133 6.64089 9.88418 6.92292C9.25505 7.20494 8.69462 7.59182 8.20288 8.08356C7.68222 8.61869 7.28088 9.22612 6.99885 9.90587C6.71683 10.5856 6.57582 11.2943 6.57582 12.0319C6.57582 12.7695 6.71683 13.4782 6.99885 14.1579C7.28088 14.8377 7.68222 15.4451 8.20288 15.9803C8.73801 16.5154 9.34544 16.9203 10.0252 17.1951C10.705 17.4699 11.4136 17.6073 12.1512 17.6073C12.8021 17.6073 13.4276 17.5025 14.0278 17.2928C14.628 17.083 15.1812 16.7757 15.6874 16.3707L16.0996 15.9803C16.7359 15.3728 17.206 14.6063 17.5097 13.6807C17.5386 13.565 17.6037 13.4746 17.7049 13.4095C17.8062 13.3444 17.9147 13.3263 18.0304 13.3553L19.3103 13.6373C19.4549 13.6517 19.5707 13.7168 19.6574 13.8325C19.7442 13.9482 19.7876 14.0784 19.7876 14.223C19.7876 14.2953 19.7804 14.3532 19.7659 14.3966C19.5345 15.1486 19.1982 15.8501 18.7571 16.5009C18.316 17.1517 17.7917 17.723 17.1843 18.2148C16.4901 18.7788 15.7127 19.2163 14.8522 19.5273C13.9916 19.8382 13.0913 19.9937 12.1512 19.9937C10.7049 19.9937 9.37438 19.6357 8.15949 18.9198C6.94461 18.2039 5.97923 17.2385 5.26332 16.0236C4.5474 14.8088 4.18945 13.4782 4.18945 12.0319C4.18945 10.629 4.52933 9.33098 5.20908 8.13779C5.88884 6.94461 6.81083 5.98284 7.97509 5.25246C9.13936 4.52209 10.4157 4.12798 11.8041 4.07013H13.1492V1.9441C13.1492 1.90071 13.1672 1.86455 13.2034 1.83562C13.2396 1.8067 13.2793 1.79224 13.3227 1.79224H13.5614C13.6626 1.79224 13.7494 1.83562 13.8217 1.9224Z" fill="currentColor"/>
</svg>

<svg viewBox="0 0 24 24" fill="none" xmlns="http://www.w3.org/2000/svg"><path fill-rule="evenodd" clip-rule="evenodd" d="m13.822 1.922 2.43 3.19c.028.028.043.072.043.13 0 .057-.015.1-.044.13l-2.43 3.21c-.086.087-.173.13-.26.13h-.238a.187.187 0 0 1-.12-.043c-.036-.029-.054-.072-.054-.13V6.456h-1.28a5.354 5.354 0 0 0-1.985.467 5.6 5.6 0 0 0-1.681 1.16 5.755 5.755 0 0 0-1.204 1.823 5.495 5.495 0 0 0-.423 2.126c0 .738.14 1.446.423 2.126.282.68.683 1.287 1.204 1.822.535.535 1.142.94 1.822 1.215a5.62 5.62 0 0 0 2.126.412 5.596 5.596 0 0 0 3.536-1.237l.413-.39c.636-.607 1.106-1.374 1.41-2.3a.438.438 0 0 1 .195-.27.4.4 0 0 1 .325-.055l1.28.282c.145.015.26.08.347.195.087.116.13.246.13.391a.59.59 0 0 1-.021.174 7.84 7.84 0 0 1-1.009 2.104 7.96 7.96 0 0 1-6.606 3.493A7.72 7.72 0 0 1 8.16 18.92a8.057 8.057 0 0 1-2.896-2.896 7.72 7.72 0 0 1-1.074-3.992 7.73 7.73 0 0 1 1.02-3.894 8.074 8.074 0 0 1 2.766-2.886 7.686 7.686 0 0 1 3.83-1.182h1.344V1.944c0-.043.018-.08.054-.108a.187.187 0 0 1 .12-.044h.238c.102 0 .188.044.26.13Z" fill="currentColor"/></svg>
